Sources/FrostedUI/Resources/Icons.xcassets/calendar16.imageset/calendar-16.svg

<svg width="16" height="16" viewBox="0 0 16 16" fill="none" xmlns="http://www.w3.org/2000/svg" data-fui-icon="true">
  <path
    d="M11.3799 0.25C11.7941 0.25 12.1299 0.585786 12.1299 1V2.33203C13.8711 2.44986 15.25 3.89618 15.25 5.66699V12.4072C15.25 14.2552 13.7483 15.7498 11.9004 15.75H4.09961C2.25165 15.7498 0.75 14.2552 0.75 12.4072V5.66699C0.75 3.89618 2.12893 2.44986 3.87012 2.33203V1C3.87012 0.585786 4.2059 0.25 4.62012 0.25C5.03428 0.250063 5.37012 0.585826 5.37012 1V2.32422H10.6299V1C10.6299 0.585825 10.9657 0.250063 11.3799 0.25ZM2.25 12.4072C2.25 13.4227 3.07604 14.2498 4.09961 14.25H11.9004C12.924 14.2498 13.75 13.4227 13.75 12.4072V7.97266H2.25V12.4072ZM4.09961 3.82422C3.07604 3.82443 2.25 4.6515 2.25 5.66699V6.47266H13.75V5.66699C13.75 4.6515 12.924 3.82443 11.9004 3.82422H4.09961Z"
    fill="currentColor"
  />
</svg>

<svg xmlns="http://www.w3.org/2000/svg" width="16" height="16" fill="none" data-fui-icon="true" viewBox="0 0 16 16"><path fill="currentColor" d="M11.38.25a.75.75 0 0 1 .75.75v1.332a3.346 3.346 0 0 1 3.12 3.335v6.74a3.346 3.346 0 0 1-3.35 3.343H4.1a3.346 3.346 0 0 1-3.35-3.343v-6.74a3.346 3.346 0 0 1 3.12-3.335V1a.75.75 0 1 1 1.5 0v1.324h5.26V1a.75.75 0 0 1 .75-.75M2.25 12.407c0 1.016.826 1.843 1.85 1.843h7.8c1.024 0 1.85-.827 1.85-1.843V7.973H2.25zM4.1 3.824c-1.024 0-1.85.828-1.85 1.843v.806h11.5v-.806a1.846 1.846 0 0 0-1.85-1.843z"/></svg>
